; generated by Slic3r 0.9.8 on 2013-02-21 at 10:25:48

; layer_height = 0.4
; perimeters = 3
; top_solid_layers = 3
; bottom_solid_layers = 3
; fill_density = 0.4
; perimeter_speed = 30
; infill_speed = 60
; travel_speed = 130
; scale = 1
; nozzle_diameter = 0.5
; filament_diameter = 3
; extrusion_multiplier = 1
; perimeters extrusion width = 0.53mm
; infill extrusion width = 0.53mm
; first layer extrusion width = 0.80mm

M107
M104 S200 ; set temperature
G28 ; home all axes
M109 S200 ; wait for temperature to be reached
G90 ; use absolute coordinates
G21 ; set units to millimeters
G92 E0
M82 ; use absolute distances for extrusion
G1 F1800.000 E-1.00000
G92 E0
G1 Z0.400 F7800.000
G1 X109.460 Y109.270
G1 F1800.000 E1.00000
G1 X108.860 Y109.820 F540.000 E1.03388
G1 X108.430 Y110.140 E1.05619
G1 X107.970 Y110.430 E1.07883
G1 X107.490 Y110.690 E1.10156
G1 X107.240 Y110.800 E1.11293
G1 X106.730 Y110.990 E1.13558
G1 X105.950 Y111.200 E1.16921
G1 X105.410 Y111.290 E1.19200
G1 X104.600 Y111.340 E1.22578
G1 X95.400 Y111.340 E1.60875
G1 X94.590 Y111.290 E1.64253
G1 X94.050 Y111.200 E1.66532
G1 X93.530 Y111.070 E1.68764
G1 X93.010 Y110.900 E1.71041
G1 X92.510 Y110.690 E1.73298
G1 X92.030 Y110.430 E1.75571
G1 X91.570 Y110.140 E1.77834
G1 X91.140 Y109.820 E1.80066
G1 X90.730 Y109.460 E1.82337
G1 X90.180 Y108.860 E1.85725
G1 X89.860 Y108.430 E1.87956
G1 X89.570 Y107.970 E1.90220
G1 X89.310 Y107.490 E1.92493
G1 X89.200 Y107.240 E1.93629
G1 X89.010 Y106.730 E1.95895
G1 X88.800 Y105.950 E1.99258
G1 X88.710 Y105.410 E2.01537
G1 X88.660 Y104.600 E2.04915
G1 X88.660 Y95.400 E2.43212
G1 X88.710 Y94.590 E2.46590
G1 X88.800 Y94.050 E2.48869
G1 X88.930 Y93.530 E2.51100
G1 X89.100 Y93.010 E2.53378
G1 X89.310 Y92.510 E2.55635
G1 X89.570 Y92.030 E2.57908
G1 X89.860 Y91.570 E2.60171
G1 X90.180 Y91.140 E2.62403
G1 X90.360 Y90.930 E2.63554
G1 X90.730 Y90.540 E2.65792
G1 X91.350 Y90.020 E2.69160
G1 X91.800 Y89.710 E2.71435
G1 X92.510 Y89.310 E2.74827
G1 X93.270 Y89.010 E2.78229
G1 X94.050 Y88.800 E2.81591
G1 X94.590 Y88.710 E2.83870
G1 X95.400 Y88.660 E2.87248
G1 X104.600 Y88.660 E3.25546
G1 X105.410 Y88.710 E3.28924
G1 X105.950 Y88.800 E3.31203
G1 X106.470 Y88.930 E3.33434
G1 X106.990 Y89.100 E3.35711
G1 X107.490 Y89.310 E3.37969
G1 X107.970 Y89.570 E3.40241
G1 X108.430 Y89.860 E3.42505
G1 X108.860 Y90.180 E3.44736
G1 X109.270 Y90.540 E3.47008
G1 X109.820 Y91.140 E3.50396
G1 X110.140 Y91.570 E3.52627
G1 X110.430 Y92.030 E3.54891
G1 X110.690 Y92.510 E3.57163
G1 X110.800 Y92.760 E3.58300
G1 X110.990 Y93.270 E3.60566
G1 X111.200 Y94.050 E3.63928
G1 X111.290 Y94.590 E3.66207
G1 X111.340 Y95.400 E3.69585
G1 X111.340 Y104.600 E4.07883
G1 X111.290 Y105.410 E4.11261
G1 X111.200 Y105.950 E4.13540
G1 X111.070 Y106.470 E4.15771
G1 X110.900 Y106.990 E4.18048
G1 X110.690 Y107.490 E4.20306
G1 X110.430 Y107.970 E4.22578
G1 X110.140 Y108.430 E4.24842
G1 X109.820 Y108.860 E4.27073
G1 X109.534 Y109.188 E4.28885
G1 X109.460 Y109.270 E4.29345
G1 F1800.000 E3.29345
G92 E0
G1 X103.129 Y96.871 F7800.000
G1 F1800.000 E1.00000
G1 X103.129 Y103.129 F540.000 E1.26049
G1 X96.871 Y103.129 E1.52097
G1 X96.871 Y96.871 E1.78146
G1 X103.018 Y96.871 E2.03735
G1 X103.129 Y96.871 E2.04194
G1 X103.864 Y96.136 F7800.000
G1 X103.864 Y103.864 F540.000 E2.36367
G1 X96.136 Y103.864 E2.68540
G1 X96.136 Y96.136 E3.00713
G1 X103.754 Y96.136 E3.32427
G1 X103.864 Y96.136 E3.32886
G1 X104.600 Y95.400 F7800.000
G1 X104.600 Y104.600 F540.000 E3.71183
G1 X95.400 Y104.600 E4.09481
G1 X95.400 Y95.400 E4.47778
G1 X104.490 Y95.400 E4.85616
G1 X104.600 Y95.400 E4.86075
G1 X104.232 Y96.037 F7800.000
G1 F1800.000 E3.86075
G92 E0
G1 X102.627 Y97.841 F7800.000
G1 F1800.000 E1.00000
G1 X102.159 Y97.373 F1080.000 E1.02819
G1 X101.095 Y97.373 E1.07346
G1 X102.627 Y98.905 E1.16566
G1 X102.627 Y99.968 E1.21093
G1 X100.032 Y97.373 E1.36715
G1 X98.968 Y97.373 E1.41242
G1 X102.627 Y101.032 E1.63266
G1 X102.627 Y102.096 E1.67793
G1 X97.904 Y97.373 E1.96219
G1 X97.373 Y97.904 E1.99420
G1 X102.095 Y102.627 E2.27846
G1 X101.032 Y102.627 E2.32373
G1 X97.373 Y98.968 E2.54397
G1 X97.373 Y100.032 E2.58924
G1 X99.968 Y102.627 E2.74546
G1 X98.905 Y102.627 E2.79073
G1 X97.373 Y101.095 E2.88294
G1 X97.373 Y102.159 E2.92821
G1 X97.841 Y102.627 E2.95639
M106 S255
G1 F1800.000 E1.95639
G92 E0
G1 Z0.800 F7800.000
G1 X103.698 Y96.302
G1 F1800.000 E1.00000
G1 X103.698 Y103.698 F600.000 E1.21750
G1 X96.302 Y103.698 E1.43499
G1 X96.302 Y96.302 E1.65249
G1 X103.620 Y96.302 E1.86769
G1 X103.698 Y96.302 E1.86998
G1 X104.218 Y95.782 F7800.000
G1 X104.218 Y104.218 F600.000 E2.11804
G1 X95.782 Y104.218 E2.36609
G1 X95.782 Y95.782 E2.61415
G1 X104.140 Y95.782 E2.85991
G1 X104.218 Y95.782 E2.86220
G1 X104.737 Y95.263 F7800.000
G1 X104.737 Y104.737 F600.000 E3.14082
G1 X95.263 Y104.737 E3.41943
G1 X95.263 Y95.263 E3.69805
G1 X104.660 Y95.263 E3.97437
G1 X104.737 Y95.263 E3.97666
G1 X104.478 Y95.713 F7800.000
G1 F1800.000 E2.97666
G92 E0
G1 X103.344 Y103.013 F7800.000
G1 F1800.000 E1.00000
G1 X103.013 Y103.344 F1198.122 E1.01400
G1 X102.265 Y103.344 E1.03639
G1 X103.344 Y102.265 E1.08204
G1 X103.344 Y101.517 E1.10443
G1 X101.517 Y103.344 E1.18174
G1 X100.769 Y103.344 E1.20412
G1 X103.344 Y100.769 E1.31309
G1 X103.344 Y100.022 E1.33547
G1 X100.022 Y103.344 E1.47609
G1 X99.274 Y103.344 E1.49847
G1 X103.344 Y99.274 E1.67074
G1 X103.344 Y98.526 E1.69313
G1 X98.526 Y103.344 E1.89706
G1 X97.778 Y103.344 E1.91944
G1 X103.344 Y97.778 E2.15502
G1 X103.344 Y97.030 E2.17740
G1 X97.030 Y103.344 E2.44464
G1 X96.656 Y102.970 E2.46047
G1 X102.970 Y96.656 E2.72770
G1 X102.222 Y96.656 E2.75008
G1 X96.656 Y102.222 E2.98566
G1 X96.656 Y101.474 E3.00805
G1 X101.474 Y96.656 E3.21197
G1 X100.726 Y96.656 E3.23435
G1 X96.656 Y100.726 E3.40663
G1 X96.656 Y99.978 E3.42901
G1 X99.978 Y96.656 E3.56963
G1 X99.231 Y96.656 E3.59201
G1 X96.656 Y99.231 E3.70098
G1 X96.656 Y98.483 E3.72336
G1 X98.483 Y96.656 E3.80067
G1 X97.735 Y96.656 E3.82305
G1 X96.656 Y97.735 E3.86871
G1 X96.656 Y96.987 E3.89109
G1 X96.987 Y96.656 E3.90509
G1 F1800.000 E2.90509
G92 E0
G1 Z1.200 F7800.000
G1 X103.698 Y103.698
G1 F1800.000 E1.00000
G1 X96.302 Y103.698 F600.000 E1.21750
G1 X96.302 Y96.302 E1.43499
G1 X103.698 Y96.302 E1.65249
G1 X103.698 Y103.620 E1.86769
G1 X103.698 Y103.698 E1.86998
G1 X104.218 Y104.218 F7800.000
G1 X95.782 Y104.218 F600.000 E2.11804
G1 X95.782 Y95.782 E2.36609
G1 X104.218 Y95.782 E2.61415
G1 X104.218 Y104.140 E2.85991
G1 X104.218 Y104.218 E2.86220
G1 X104.737 Y104.737 F7800.000
G1 X95.263 Y104.737 F600.000 E3.14082
G1 X95.263 Y95.263 E3.41943
G1 X104.737 Y95.263 E3.69805
G1 X104.737 Y104.660 E3.97437
G1 X104.737 Y104.737 E3.97666
G1 X104.287 Y104.478 F7800.000
G1 F1800.000 E2.97666
G92 E0
G1 X96.987 Y103.344 F7800.000
G1 F1800.000 E1.00000
G1 X96.656 Y103.013 F1198.122 E1.01400
G1 X96.656 Y102.265 E1.03639
G1 X97.735 Y103.344 E1.08204
G1 X98.483 Y103.344 E1.10443
G1 X96.656 Y101.517 E1.18174
G1 X96.656 Y100.769 E1.20412
G1 X99.231 Y103.344 E1.31309
G1 X99.978 Y103.344 E1.33547
G1 X96.656 Y100.022 E1.47609
G1 X96.656 Y99.274 E1.49847
G1 X100.726 Y103.344 E1.67074
G1 X101.474 Y103.344 E1.69313
G1 X96.656 Y98.526 E1.89706
G1 X96.656 Y97.778 E1.91944
G1 X102.222 Y103.344 E2.15502
G1 X102.970 Y103.344 E2.17740
G1 X96.656 Y97.030 E2.44464
G1 X97.030 Y96.656 E2.46047
G1 X103.344 Y102.970 E2.72770
G1 X103.344 Y102.222 E2.75008
G1 X97.778 Y96.656 E2.98566
G1 X98.526 Y96.656 E3.00805
G1 X103.344 Y101.474 E3.21197
G1 X103.344 Y100.726 E3.23435
G1 X99.274 Y96.656 E3.40663
G1 X100.022 Y96.656 E3.42901
G1 X103.344 Y99.978 E3.56963
G1 X103.344 Y99.231 E3.59201
G1 X100.769 Y96.656 E3.70098
G1 X101.517 Y96.656 E3.72336
G1 X103.344 Y98.483 E3.80067
G1 X103.344 Y97.735 E3.82305
G1 X102.265 Y96.656 E3.86871
G1 X103.013 Y96.656 E3.89109
G1 X103.344 Y96.987 E3.90509
G1 F1800.000 E2.90509
G92 E0
G1 Z1.600 F7800.000
G1 X103.698 Y103.698
G1 F1800.000 E1.00000
G1 X96.302 Y103.698 F600.000 E1.21750
G1 X96.302 Y96.302 E1.43499
G1 X103.698 Y96.302 E1.65249
G1 X103.698 Y103.620 E1.86769
G1 X103.698 Y103.698 E1.86998
G1 X104.218 Y104.218 F7800.000
G1 X95.782 Y104.218 F600.000 E2.11804
G1 X95.782 Y95.782 E2.36609
G1 X104.218 Y95.782 E2.61415
G1 X104.218 Y104.140 E2.85991
G1 X104.218 Y104.218 E2.86220
G1 X104.737 Y104.737 F7800.000
G1 X95.263 Y104.737 F600.000 E3.14082
G1 X95.263 Y95.263 E3.41943
G1 X104.737 Y95.263 E3.69805
G1 X104.737 Y104.660 E3.97437
G1 X104.737 Y104.737 E3.97666
G1 X104.287 Y104.478 F7800.000
G1 X103.344 Y103.013
G1 X103.013 Y103.344 F1198.119 E3.99067
G1 X102.265 Y103.344 E4.01305
G1 X103.344 Y102.265 E4.05871
G1 X103.344 Y101.517 E4.08109
G1 X101.517 Y103.344 E4.15840
G1 X100.769 Y103.344 E4.18078
G1 X103.344 Y100.769 E4.28975
G1 X103.344 Y100.022 E4.31213
G1 X100.022 Y103.344 E4.45275
G1 X99.274 Y103.344 E4.47513
G1 X103.344 Y99.274 E4.64740
G1 X103.344 Y98.526 E4.66979
G1 X98.526 Y103.344 E4.87371
G1 X97.778 Y103.344 E4.89609
G1 X103.344 Y97.778 E5.13167
G1 X103.344 Y97.030 E5.15406
G1 X97.030 Y103.344 E5.42129
G1 X96.656 Y102.970 E5.43711
G1 X102.970 Y96.656 E5.70435
G1 X102.222 Y96.656 E5.72673
G1 X96.656 Y102.222 E5.96231
G1 X96.656 Y101.474 E5.98469
G1 X101.474 Y96.656 E6.18862
G1 X100.726 Y96.656 E6.21100
G1 X96.656 Y100.726 E6.38327
G1 X96.656 Y99.978 E6.40565
G1 X99.978 Y96.656 E6.54627
G1 X99.231 Y96.656 E6.56865
G1 X96.656 Y99.231 E6.67762
G1 X96.656 Y98.483 E6.70000
G1 X98.483 Y96.656 E6.77731
G1 X97.735 Y96.656 E6.79969
G1 X96.656 Y97.735 E6.84535
G1 X96.656 Y96.987 E6.86773
G1 X96.987 Y96.656 E6.88173
G1 F1800.000 E5.88173
G92 E0
G1 Z2.000 F7800.000
G1 X103.698 Y103.698
G1 F1800.000 E1.00000
G1 X96.302 Y103.698 F600.000 E1.21750
G1 X96.302 Y96.302 E1.43499
G1 X103.698 Y96.302 E1.65249
G1 X103.698 Y103.620 E1.86769
G1 X103.698 Y103.698 E1.86998
G1 X104.218 Y104.218 F7800.000
G1 X95.782 Y104.218 F600.000 E2.11804
G1 X95.782 Y95.782 E2.36609
G1 X104.218 Y95.782 E2.61415
G1 X104.218 Y104.140 E2.85991
G1 X104.218 Y104.218 E2.86220
G1 X104.737 Y104.737 F7800.000
G1 X95.263 Y104.737 F600.000 E3.14082
G1 X95.263 Y95.263 E3.41943
G1 X104.737 Y95.263 E3.69805
G1 X104.737 Y104.660 E3.97437
G1 X104.737 Y104.737 E3.97666
G1 X104.287 Y104.478 F7800.000
G1 F1800.000 E2.97666
G92 E0
G1 X96.987 Y103.344 F7800.000
G1 F1800.000 E1.00000
G1 X96.656 Y103.013 F1198.119 E1.01400
G1 X96.656 Y102.265 E1.03639
G1 X97.735 Y103.344 E1.08204
G1 X98.483 Y103.344 E1.10443
G1 X96.656 Y101.517 E1.18174
G1 X96.656 Y100.769 E1.20412
G1 X99.231 Y103.344 E1.31308
G1 X99.978 Y103.344 E1.33547
G1 X96.656 Y100.022 E1.47608
G1 X96.656 Y99.274 E1.49847
G1 X100.726 Y103.344 E1.67074
G1 X101.474 Y103.344 E1.69312
G1 X96.656 Y98.526 E1.89705
G1 X96.656 Y97.778 E1.91943
G1 X102.222 Y103.344 E2.15501
G1 X102.970 Y103.344 E2.17739
G1 X96.656 Y97.030 E2.44462
G1 X97.030 Y96.656 E2.46045
G1 X103.344 Y102.970 E2.72768
G1 X103.344 Y102.222 E2.75007
G1 X97.778 Y96.656 E2.98565
G1 X98.526 Y96.656 E3.00803
G1 X103.344 Y101.474 E3.21195
G1 X103.344 Y100.726 E3.23433
G1 X99.274 Y96.656 E3.40661
G1 X100.022 Y96.656 E3.42899
G1 X103.344 Y99.978 E3.56961
G1 X103.344 Y99.231 E3.59199
G1 X100.769 Y96.656 E3.70095
G1 X101.517 Y96.656 E3.72334
G1 X103.344 Y98.483 E3.80065
G1 X103.344 Y97.735 E3.82303
G1 X102.265 Y96.656 E3.86869
G1 X103.013 Y96.656 E3.89107
G1 X103.344 Y96.987 E3.90507
G1 F1800.000 E2.90507
G92 E0
G1 Z2.400 F7800.000
G1 X103.698 Y103.698
G1 F1800.000 E1.00000
G1 X96.302 Y103.698 F600.000 E1.21750
G1 X96.302 Y96.302 E1.43499
G1 X103.698 Y96.302 E1.65249
G1 X103.698 Y103.620 E1.86769
G1 X103.698 Y103.698 E1.86998
G1 X104.218 Y104.218 F7800.000
G1 X95.782 Y104.218 F600.000 E2.11804
G1 X95.782 Y95.782 E2.36609
G1 X104.218 Y95.782 E2.61415
G1 X104.218 Y104.140 E2.85991
G1 X104.218 Y104.218 E2.86220
G1 X104.737 Y104.737 F7800.000
G1 X95.263 Y104.737 F600.000 E3.14082
G1 X95.263 Y95.263 E3.41943
G1 X104.737 Y95.263 E3.69805
G1 X104.737 Y104.660 E3.97437
G1 X104.737 Y104.737 E3.97666
G1 X104.287 Y104.478 F7800.000
G1 X103.344 Y103.013
G1 X103.013 Y103.344 F1198.119 E3.99067
G1 X102.265 Y103.344 E4.01305
G1 X103.344 Y102.265 E4.05871
G1 X103.344 Y101.517 E4.08109
G1 X101.517 Y103.344 E4.15840
G1 X100.769 Y103.344 E4.18078
G1 X103.344 Y100.769 E4.28975
G1 X103.344 Y100.022 E4.31213
G1 X100.022 Y103.344 E4.45275
G1 X99.274 Y103.344 E4.47513
G1 X103.344 Y99.274 E4.64740
G1 X103.344 Y98.526 E4.66979
G1 X98.526 Y103.344 E4.87371
G1 X97.778 Y103.344 E4.89609
G1 X103.344 Y97.778 E5.13167
G1 X103.344 Y97.030 E5.15406
G1 X97.030 Y103.344 E5.42129
G1 X96.656 Y102.970 E5.43711
G1 X102.970 Y96.656 E5.70435
G1 X102.222 Y96.656 E5.72673
G1 X96.656 Y102.222 E5.96231
G1 X96.656 Y101.474 E5.98469
G1 X101.474 Y96.656 E6.18862
G1 X100.726 Y96.656 E6.21100
G1 X96.656 Y100.726 E6.38327
G1 X96.656 Y99.978 E6.40565
G1 X99.978 Y96.656 E6.54627
G1 X99.231 Y96.656 E6.56865
G1 X96.656 Y99.231 E6.67762
G1 X96.656 Y98.483 E6.70000
G1 X98.483 Y96.656 E6.77731
G1 X97.735 Y96.656 E6.79969
G1 X96.656 Y97.735 E6.84535
G1 X96.656 Y96.987 E6.86773
G1 X96.987 Y96.656 E6.88173
G1 F1800.000 E5.88173
G92 E0
G1 Z2.800 F7800.000
G1 X103.698 Y96.302
G1 F1800.000 E1.00000
G1 X103.698 Y103.698 F600.000 E1.21750
G1 X96.302 Y103.698 E1.43499
G1 X96.302 Y96.302 E1.65249
G1 X103.620 Y96.302 E1.86769
G1 X103.698 Y96.302 E1.86998
G1 X104.218 Y95.782 F7800.000
G1 X104.218 Y104.218 F600.000 E2.11804
G1 X95.782 Y104.218 E2.36609
G1 X95.782 Y95.782 E2.61415
G1 X104.140 Y95.782 E2.85991
G1 X104.218 Y95.782 E2.86220
G1 X104.737 Y95.263 F7800.000
G1 X104.737 Y104.737 F600.000 E3.14082
G1 X95.263 Y104.737 E3.41943
G1 X95.263 Y95.263 E3.69805
G1 X104.660 Y95.263 E3.97437
G1 X104.737 Y95.263 E3.97666
G1 X104.478 Y95.713 F7800.000
G1 X103.344 Y96.987
G1 X103.013 Y96.656 F1198.119 E3.99067
G1 X102.265 Y96.656 E4.01305
G1 X103.344 Y97.735 E4.05871
G1 X103.344 Y98.483 E4.08109
G1 X101.517 Y96.656 E4.15840
G1 X100.769 Y96.656 E4.18078
G1 X103.344 Y99.231 E4.28975
G1 X103.344 Y99.978 E4.31213
G1 X100.022 Y96.656 E4.45275
G1 X99.274 Y96.656 E4.47513
G1 X103.344 Y100.726 E4.64740
G1 X103.344 Y101.474 E4.66978
G1 X98.526 Y96.656 E4.87371
G1 X97.778 Y96.656 E4.89609
G1 X103.344 Y102.222 E5.13167
G1 X103.344 Y102.970 E5.15405
G1 X97.030 Y96.656 E5.42128
G1 X96.656 Y97.030 E5.43711
G1 X102.970 Y103.344 E5.70434
G1 X102.222 Y103.344 E5.72672
G1 X96.656 Y97.778 E5.96231
G1 X96.656 Y98.526 E5.98469
G1 X101.474 Y103.344 E6.18861
G1 X100.726 Y103.344 E6.21099
G1 X96.656 Y99.274 E6.38327
G1 X96.656 Y100.022 E6.40565
G1 X99.978 Y103.344 E6.54627
G1 X99.231 Y103.344 E6.56865
G1 X96.656 Y100.769 E6.67762
G1 X96.656 Y101.517 E6.70000
G1 X98.483 Y103.344 E6.77731
G1 X97.735 Y103.344 E6.79969
G1 X96.656 Y102.265 E6.84535
G1 X96.656 Y103.013 E6.86773
G1 X96.987 Y103.344 E6.88173
G1 F1800.000 E5.88173
G92 E0
G1 Z3.200 F7800.000
G1 X96.302 Y96.302
G1 F1800.000 E1.00000
G1 X103.698 Y96.302 F600.000 E1.21750
G1 X103.698 Y103.698 E1.43499
G1 X96.302 Y103.698 E1.65249
G1 X96.302 Y96.380 E1.86769
G1 X96.302 Y96.302 E1.86998
G1 X95.782 Y95.782 F7800.000
G1 X104.218 Y95.782 F600.000 E2.11804
G1 X104.218 Y104.218 E2.36609
G1 X95.782 Y104.218 E2.61415
G1 X95.782 Y95.860 E2.85991
G1 X95.782 Y95.782 E2.86220
G1 X95.263 Y95.263 F7800.000
G1 X104.737 Y95.263 F600.000 E3.14082
G1 X104.737 Y104.737 E3.41943
G1 X95.263 Y104.737 E3.69805
G1 X95.263 Y95.340 E3.97437
G1 X95.263 Y95.263 E3.97666
G1 X95.713 Y95.522 F7800.000
G1 X96.987 Y96.656
G1 X96.656 Y96.987 F1198.119 E3.99067
G1 X96.656 Y97.735 E4.01305
G1 X97.735 Y96.656 E4.05871
G1 X98.483 Y96.656 E4.08109
G1 X96.656 Y98.483 E4.15840
G1 X96.656 Y99.231 E4.18078
G1 X99.231 Y96.656 E4.28975
G1 X99.978 Y96.656 E4.31213
G1 X96.656 Y99.978 E4.45275
G1 X96.656 Y100.726 E4.47513
G1 X100.726 Y96.656 E4.64740
G1 X101.474 Y96.656 E4.66978
G1 X96.656 Y101.474 E4.87371
G1 X96.656 Y102.222 E4.89609
G1 X102.222 Y96.656 E5.13167
G1 X102.970 Y96.656 E5.15405
G1 X96.656 Y102.970 E5.42128
G1 X97.030 Y103.344 E5.43711
G1 X103.344 Y97.030 E5.70434
G1 X103.344 Y97.778 E5.72672
G1 X97.778 Y103.344 E5.96231
G1 X98.526 Y103.344 E5.98469
G1 X103.344 Y98.526 E6.18861
G1 X103.344 Y99.274 E6.21099
G1 X99.274 Y103.344 E6.38327
G1 X100.022 Y103.344 E6.40565
